!!!!SEGMENT: pl-sa--369-a-viii-9--001_anonim--koniec-utrapienia.krn
!!!cenid: 17xx:1450
!!!COM: Anonim
!!!COM-rismID: pe30004985
!!!CDT:
!!!CNT:
!!!OTL: Koniec utrapienia
!!!PDT:
!!!AGN:
!!!SMS-siglum: PL-SA
!!!SMS-shelfmark: 369/A VIII 9
!!!SMS-shelfwork: 001 W
!!!SMS-variant:
!!!SMS-altvar:
!!!NIFC-rismSourceID: 1001041685
!!!NIFC-rismChildID: 1001041685
!!!NIFC-islandoraID: none
!!!URL-pdf-islandora:
!!!URL-scan: https://bc.bdsandomierz.pl/dlibra/publication/1673/edition/1641/content @EN{Scan in the Sandomierz Diocese Digital Library} @PL{Skany w portalu Cyfrowa Biblioteka Diecezjalna w Sandomierzu}
!!!IIIF:
!!!ONB-nifc: UWAGA: utwory w zbiorze: 1. Koniec utrapienia narodu ludzkiego, 2. Wesołą nowinę dziś ogłaszamy
!!!AIN: 1 soprn
!!!key: C
**kern	**text	**text	**text	**text	**text	**text	**text	**text
*part1	*part1	*part1	*part1	*part1	*part1	*part1	*part1	*part1
*staff1	*staff1	*staff1	*staff1	*staff1	*staff1	*staff1	*staff1	*staff1
*	*verse1	*	*verse2	*	*verse3	*	*verse4	*
*	*v:1	*	*v:2	*	*v:3	*	*v:4	*
*>[A,A,B]	*	*	*	*	*	*	*	*
*>A	*	*	*	*	*	*	*	*
*I"[Canto]	*	*	*	*	*	*	*	*
*I'S	*	*	*	*	*	*	*	*
*Isoprn	*	*	*	*	*	*	*	*
*ICvox	*	*	*	*	*	*	*	*
*clefC1	*	*	*	*	*	*	*	*
*k[]	*	*	*	*	*	*	*	*
*C:	*	*	*	*	*	*	*	*
*M3/4	*	*	*	*	*	*	*	*
=1	=1	=1	=1	=1	=1	=1	=1	=1
8cc\	Ko-	Bog	Po-	Ze	Więc	Ser-	Al-	Al-
8b\	-niec	nam	-mo-	A-	wi-	-ca	-bo	-bo
(8cc\L	u-	zeſ-	-ran-	-da-	-tac	u-	za-	Do-
8dd\J)	.	.	.	.	.	.	.	.
(8ee\L	-tra-	-łał	-cza	-ma	Je-	-ni-	-miaſt	-bro-
8ff\J)	.	.	.	.	.	.	.	.
=2	=2	=2	=2	=2	=2	=2	=2	=2
*2\right	*	*	*	*	*	*	*	*
2gg\	-pie-	Sy-	Ray-	z_E-	-zu-	-zo-	zło-	-dzieẏ-
(8aa\L	-nia	-na,	-ska	-wą	-sa	-ne	-bka	-kom
8gg\J)	.	.	.	.	.	.	.	.
=3	=3	=3	=3	=3	=3	=3	=3	=3
8qqgg/	.	.	.	.	.	.	.	.
8ff\	na-	ie-	te-	z_Ra-	do	w_po-	do	na-
8ee\	-ro-	-dno-	-go	-ju	Szo-	-da-	Serc	-szym
(8ff\L	-du	-ro-	na-	wy-	-py	-ru-	na-	go
8aa\J)	.	.	.	.	.	.	.	.
(8gg\L	ludz-	-dzo-	-ro-	-pra-	bie-	-nek	-szych	przy-
8ff\J)	.	.	.	.	.	.	.	.
=4	=4	=4	=4	=4	=4	=4	=4	=4
(8ee\L	-kie-	-ne-	-bi-	-wi-	-gay-	day-	we-	-nie-
8dd\J)	.	.	.	.	.	.	-zmy.	.
2cc\	-go	go.	-ła	ła	-my,	-my	.	-smy.
=5:|!	=5:|!	=5:|!	=5:|!	=5:|!	=5:|!	=5:|!	=5:|!	=5:|!
*>B	*	*	*	*	*	*	*	*
*	*vv:1	*	*vv:2	*	*vv:3	*	*v:4	*
2ff\	By	.	Dzi-	.	Ca-	.	Co	.
(8gg\L	przy-	.	-siay	.	-lu-	.	się	.
8ff\J)	.	.	.	.	.	.	.	.
=6	=6	=6	=6	=6	=6	=6	=6	=6
8ee\	-iął	.	roszcz-	.	-iąc	.	z_nim	.
8dd\	czło-	.	-ka	.	rą-	.	na-	.
8qqff/	.	.	.	.	.	.	.	.
4ee\	-wie-	.	wscho-	.	-czę-	.	-piesz-	.
8dd\L	-ka	.	-dzi,	.	-ta,	.	-czą,	.
8cc\J	.	.	.	.	.	.	.	.
=7	=7	=7	=7	=7	=7	=7	=7	=7
(4.dd\	Kto-	.	Ja-	.	Kto-	.	I	.
8ee\)	.	.	.	.	.	.	.	.
(8dd\L	-ry	.	-błusz-	.	-re	.	niech	.
8cc\J)	.	.	.	.	.	.	.	.
=8	=8	=8	=8	=8	=8	=8	=8	=8
8b\	był	.	-ko	.	na-	.	się	.
8a\	z_da-	.	nam	.	-sze	.	po-	.
4b\	-le-	.	ro-	.	pę-	.	-mieſz-	.
4g\	-ka.	.	-dzi.	.	-ta	.	-czą.	.
!!LO:LB:g=original
=9	=9	=9	=9	=9	=9	=9	=9	=9
*	*	*	*	*	*v:3	*	*v:4	*
8cc\	Dla	.	Nad-	.	Po-	.	W_Em-	.
8b\	wy-	.	-gra-	.	-zry-	.	-pi-	.
(8cc\L	-stę-	.	-dza-	.	-wa-	.	-rey-	.
8dd\J)	.	.	.	.	.	.	.	.
(8ee\L	-pku	.	-iąc	.	-wszy	.	-skiey	.
8ff\J)	.	.	.	.	.	.	.	.
=10	=10	=10	=10	=10	=10	=10	=10	=10
(8gg\L	Ro-	.	Szko-	.	nie-	.	Szo-	.
8aa\J)	.	.	.	.	.	.	.	.
8dd\	-dzi-	.	-dę	.	-bo	.	-pie	.
8ff\	-cow	.	A-	.	nam	.	z_Je-	.
(8ee\L	na-	.	-da-	.	da-	.	-zu-	.
8b\J)	.	.	.	.	.	.	.	.
=11	=11	=11	=11	=11	=11	=11	=11	=11
2.cc\	-ſzych.	.	-ma.	.	-ły.	.	-sem.	.
==	==	==	==	==	==	==	==	==
*-	*-	*-	*-	*-	*-	*-	*-	*-
!!!system-decoration: *
!!!ENC: Mateusz Solarz
!!!END: 2020-12-04
!!!ENC: Andrzej Kubiczek
!!!END: 2021-12-30
!!!YEC: Copyright 2022 Narodowy Instytut Fryderyka Chopina (https://polishscores.org)
!!!YEM: License CC-BY-4.0 (https://creativecommons.org/licenses/by/4.0)
